X: 17936
T: Hovering Dewdrop, The
R: reel
M: 4/4
K: Dmajor
|:D2FD ADFD|GBAc BdcA|D2FD ADFD|EDCD EGFE|
D2FD ADFD|GBAc Bdce|f2ed e2cA|Bdce d4:|
|:f2df e2ce|fdaf ecBA|GABc d3e|fdaf e2de|
f2df e2ce|fdaf edce|f2ed e2cA|Bdce d4:|

